X:147
T:Short Apron
T:An t-aparan goirid
R:Slow Air
S:Simon Fraser Collection
N:No.39
O:Scottish
M:3/4
L:1/8
Q:1/4=160
K:C
G/A/B|c3 ded|c2 G2 GA|_B3 dcB|A4 G/A/=B|c3 de>d|c2G2B2|cBcdef|
g4 c'2|g2f2e2|d2c2B2|c2B2A2|G4 zg/f/|efgabc'|g2 e2 c/d/e/f/|e3f d2|c4:|
|:c>d|e2c2d2|c2G2GA|_B3 dcB|A4 c>d|e2c2d2|c2G2B2|cBcdef|g4 c/b/c'|
g2f2e2|d2c2B2|c2B2A2|G4 zc/4B/4A/|g2 F>EFA|G3 gaf|e3f d2|c4:|

